!!!COM: Bach, Johann Sebastian
!!!OTL: 165. O Lamm Gottes, unschuldig
!!!ONM: No. 165
!!!OCL: Erk
!!!SCA: BWV 401
!!!YOE: Riemenschneider, Albert
!!!OPR: 371 Harmonized Chorales and 69 Chorale Melodies with Figured Bass
!!!OPT: Bach Chorale Harmonizations
**kern	**kern	**kern	**kern	**harm	**root
!bass	!tenor	!alto	!sprno	!	!
*Iorgan	*Iorgan	*Iorgan	*Iorgan	*Iorgan	*Iorgan
*>[A,A,B]	*>[A,A,B]	*>[A,A,B]	*>[A,A,B]	*>[A,A,B]	*>[A,A,B]
*>norep[A,B]	*>norep[A,B]	*>norep[A,B]	*>norep[A,B]	*>norep[A,B]	*>norep[A,B]
*>A	*>A	*>A	*>A	*>A	*>A
*k[b-]	*k[b-]	*k[b-]	*k[b-]	*k[b-]	*k[b-]
*F:	*F:	*F:	*F:	*F:	*F:
*met(C)	*met(C)	*met(C)	*met(C)	*met(C)	*met(C)
*M4/4	*M4/4	*M4/4	*M4/4	*M4/4	*M4/4
*MM60	*MM60	*MM60	*MM60	*MM60	*MM60
8FF	8A	4c	4f	I	4FF
8GG	8B-	.	.	.	.
=1	=1	=1	=1	=1	=1
4AA	[4c	16c	4f	I7b	4FF
.	.	16d	.	.	.
.	.	8e-	.	.	.
[4BB-	8c]	8e-	4f	IV	4BB-
.	16B-	8d	.	.	.
.	16A	.	.	.	.
4BB-]	4G	8en	4cc	V7c	4CC
.	.	8c	.	.	.
8AA	[4c	8f	4cc	Ib	4FF
8GG	.	8e	.	.	.
=2	=2	=2	=2	=2	=2
4FF	4c]	4a	2dd	vi7b	4DD
4GG	4Bn	8g	.	V/V	4GG
.	.	8f	.	.	.
4C;	4G;	4e;	4cc;	V;	4CC;
4AA	4A	[4e	4cc	iii	4AA
=3	=3	=3	=3	=3	=3
4D	4A	8e]	4f	vi	4DD
.	.	[8d	.	.	.
4E	4G	8d]	4g	Vb	4CC
.	.	8c	.	.	.
8F	4.F	8c	4a	I	4FF
8E	.	16d	.	.	.
.	.	16e	.	.	.
8D	.	[4f	4b-	IVb	4BB-
8BB-	8d	.	.	.	.
=4	=4	=4	=4	=4	=4
4C	4c	8f]	4a	Ic	4FF
.	.	16e	.	.	.
.	.	16d	.	.	.
4CC	8.c	4e	8g	V	4CC
.	.	.	8f	.	.
.	16B-	.	.	.	.
4FF;	4A;	4c;	4f;	I;	4FF;
=:|!	=:|!	=:|!	=:|!	=:|!	=:|!
*>B	*>B	*>B	*>B	*>B	*>B
[4F	4c	4f	4a	I	4FF
=5	=5	=5	=5	=5	=5
8F]	4c	4f	4a	I	4FF
8E	.	.	.	.	.
8D	4d	4f	4a	vi	4DD
8C	.	.	.	.	.
4BBn	4d	4f	4g	V7b/V	4GG
4C#	4A	4e	4a	Vb/vi	4AA
=6	=6	=6	=6	=6	=6
!!linebreak: 2
8D	8A	8d	8f	vi	8DD
8E	8G	[8c	8e	Vb	8CC
8F	8A	8c]	4d	vi7b	8DD
8G	16G	8Bn	.	V/V	8GG
.	16F	.	.	.	.
4C;	4E;	4G;	4c;	V;	4CC;
4AA	4F	4e-	4cc	V7b/IV	4FF
=7	=7	=7	=7	=7	=7
4BB-	8F	8d	4dd	IV	8BB-
.	8G	8en	.	(vii7c)	8EE
[4F	8A	8f	4cc	I	4FF
.	8B-	16g	.	.	.
.	.	16a	.	.	.
8F]	[4c	4g	4cc	Vb	4CC
8E	.	.	.	.	.
4F	8c]	4f	8a	I	8FF
.	8d	.	8b-	IVc	8BB-
=8	=8	=8	=8	=8	=8
8F	4e-	4.a	4cc	V7/IV	8FF
8F#	.	.	.	viioD7/ii	8FF#
8G	4d	.	4b-	v/VI	4AA
8GG	.	[8g	.	.	.
4D;	4d;	8g]	4a;	VI;	4DD;
.	.	8f#;	.	.	.
8BB-	8d	4g	4dd	iib	8GG
8BBn	8fn	.	.	V7b/V	8GG
=9	=9	=9	=9	=9	=9
4C	[4en	4g	8cc	V	4CC
.	.	.	8b-	.	.
4D	8e]	4f	4a	vi	4DD
.	[8d	.	.	.	.
4E	8d]	[4g	4g	Vb	4CC
.	8c	.	.	.	.
4F	4c	8g]	4a	I	4FF
.	.	16f	.	.	.
.	.	16e	.	.	.
=10	=10	=10	=10	=10	=10
8AA	8c	4f	4cc	Ib	4FF
16BB-	8A	.	.	.	.
16C	.	.	.	.	.
8D	8F	[4f	4a	vi	4DD
8C	8A	.	.	.	.
4BB-	4d	4f]	2g	ii7b	4GG
4C	8c	4e	.	V	4CC
.	8B-	.	.	.	.
=11	=11	=11	=11	=11	=11
2.FF;	2.A;	2.c;	2.f;	I;	2.FF;
==	==	==	==	==	==
*-	*-	*-	*-	*-	*-
!!!CDT: 1685/3//-1750/7/28
!!!OCY: Deutschland
!!!AGN: chorale
!!!AST: Baroque
!!!AIN: vox
!!!YOY: 1941
!!!PPP: New York; London
!!!PPR: G. Schirmer
!!!ENC: David Huron
!!!EED: David Huron
!!!YEN: United States of America
!!!YER: 1992
!!!YEC: Copyright 1992 David Huron
!!!YEM: Rights to all derivative electronic formats reserved.
!!!YER: March 20, 1996
!!!AMT: simple quadruple
!!!EEV: 1.1
!!chor2scor: -l 2 -s 0.6 -o %b.pmx
